!!!COM: Claude Goudimel
!!!OMD: Psalm 97: L'Eternel est regnant
**kern	**kern	**kern	**kern
*part4	*part3	*part2	*part1
*staff4	*staff3	*staff2	*staff1
*I"bassus	*I"tenor	*I"contra	*I"superius
*clefF3	*clefC3	*clefC2	*clefG2
*k[b-]	*k[b-]	*k[b-]	*k[b-]
!!LO:TX:omd:t=
*M2/2	*M2/2	*M2/2	*M2/2
*met(c|)	*met(c|)	*met(c|)	*met(c|)
=1	=1	=1	=1
1F	1c	1f	1a
=2	=2	=2	=2
2B-	2d	2f	2b-
2d	2f	2f	2b-
=3	=3	=3	=3
2c	2f	2g	2cc
2c	2e	2g	2cc
=4	=4	=4	=4
1F	1f	1a	1cc
=5	=5	=5	=5
1r	1r	1r	1r
=6	=6	=6	=6
1F	1f	1a	1cc
=7	=7	=7	=7
2B-	2d	2f	2dd
2A	2e	2a	2cc
=8	=8	=8	=8
2F	2f	2a	2cc
2G	2d	2g	2b-
=9	=9	=9	=9
1A	1c	1e	1a
=10	=10	=10	=10
1F	1c	1f	1a
=11	=11	=11	=11
2F	2f	2a	2cc
2B-	2d	2f	2dd
=12	=12	=12	=12
2A	2e	2a	2cc
2F	2f	2a	[2cc
=13	=13	=13	=13
1G	1d	1g	2cc]
.	.	.	2bn
=14	=14	=14	=14
1C	1c	1e	1cc
=15	=15	=15	=15
1r	1r	1r	1r
=16	=16	=16	=16
1F	1F	1A	1c
=17	=17	=17	=17
2F	2A	2c	2f
2C	2c	2e-X	2g
=18	=18	=18	=18
2E-X	2B-	2e-X	2g
2F	2A	2c	[2f
=19	=19	=19	=19
1C	1G	1c	2f]
.	.	.	2e
=20	=20	=20	=20
1F	1F	1c	1f
=21	=21	=21	=21
1r	1r	1r	1r
=22	=22	=22	=22
1F	1A	1c	1f
=23	=23	=23	=23
2C	2G	2c	2e
2C	2c	2e	2g
=24	=24	=24	=24
2F	2c	2f	2a
2G	2Bn	2d	2g
=25	=25	=25	=25
1C	1c	1e	1g
=26	=26	=26	=26
1r	1r	1r	1r
=27	=27	=27	=27
1F	1A	1c	1f
=28	=28	=28	=28
2C	2G	2c	2e
2C	2c	2e	2g
=29	=29	=29	=29
2F	2c	2f	2a
2G	2Bn	2d	2g
=30	=30	=30	=30
1C	1c	1e	1g
=31	=31	=31	=31
1r	1r	1r	1r
=32	=32	=32	=32
1F	1A	1c	1f
=33	=33	=33	=33
2BB-	2d	2f	2b-
2BB-	2d	2f	2b-
=34	=34	=34	=34
1F	1c	1f	1a
=35	=35	=35	=35
1G	1B-	1d	1g
=36	=36	=36	=36
2D	2A	2d	2f
2D	2A	2d	2f
=37	=37	=37	=37
2BB-	2d	2f	2b-
2BB-	2d	2f	2b-
=38	=38	=38	=38
1F	1c	1f	1a
=39	=39	=39	=39
1G	1B-	1d	1g
=40	=40	=40	=40
1D	1A	1d	1f
=41	=41	=41	=41
1r	1r	1r	1r
=42	=42	=42	=42
1F	1c	1A	1a
=43	=43	=43	=43
2D	2F	2A	2d
2BB-	2B-	[2G	2d
=44	=44	=44	=44
1C	1A	2G]	1c
.	.	[2F	.
=45	=45	=45	=45
1C	1G	2F]	1c
.	.	2E	.
=46	=46	=46	=46
1F;	1F;	1F;	1c;
==	==	==	==
*-	*-	*-	*-
!!!software: music21 v.9.7.1
!!!software: music21 v.9.1.0
!!!RDF**kern: > = above
!!!RDF**kern: < = below
